SVG_Azure_Grouped/Generic/Customer Lockbox for Microsoft Azure.svg

<?xml version="1.0" encoding="UTF-8" standalone="no"?>
<!-- Generated by Microsoft Visio, SVG Export Customer Lockbox for Microsoft Azure.svg Page-1 -->

<svg
   xmlns:dc="http://purl.org/dc/elements/1.1/"
   xmlns:cc="http://creativecommons.org/ns#"
   xmlns:rdf="http://www.w3.org/1999/02/22-rdf-syntax-ns#"
   xmlns:svg="http://www.w3.org/2000/svg"
   xmlns="http://www.w3.org/2000/svg"
   xmlns:xlink="http://www.w3.org/1999/xlink"
   xmlns:sodipodi="http://sodipodi.sourceforge.net/DTD/sodipodi-0.dtd"
   xmlns:inkscape="http://www.inkscape.org/namespaces/inkscape"
   width="0.78778082in"
   height="0.78743291in"
   viewBox="0 0 56.720546 56.694935"
   xml:space="preserve"
   class="st6"
   version="1.1"
   id="svg52"
   sodipodi:docname="Customer Lockbox for Microsoft Azure.svg"
   style="font-size:12px;overflow:visible;color-interpolation-filters:sRGB;fill:none;fill-rule:evenodd;stroke-linecap:square;stroke-miterlimit:3"
   inkscape:version="0.92.5 (2060ec1f9f, 2020-04-08)"><metadata
   id="metadata56"><rdf:RDF><cc:Work
       rdf:about=""><dc:format>image/svg+xml</dc:format><dc:type
         rdf:resource="http://purl.org/dc/dcmitype/StillImage" /></cc:Work></rdf:RDF></metadata><sodipodi:namedview
   pagecolor="#ffffff"
   bordercolor="#666666"
   borderopacity="1"
   objecttolerance="10"
   gridtolerance="10"
   guidetolerance="10"
   inkscape:pageopacity="0"
   inkscape:pageshadow="2"
   inkscape:window-width="640"
   inkscape:window-height="480"
   id="namedview54"
   showgrid="false"
   inkscape:zoom="1.4112861"
   inkscape:cx="37.811176"
   inkscape:cy="37.798716"
   inkscape:window-x="0"
   inkscape:window-y="0"
   inkscape:window-maximized="0"
   inkscape:current-layer="svg52" />
	<style
   type="text/css"
   id="style2">
	<![CDATA[
		.st1 {fill:url(#grad0-5);stroke:none;stroke-linecap:butt;stroke-width:34.3623}
		.st2 {fill:#ffffff;stroke:none;stroke-linecap:butt;stroke-width:34.3623}
		.st3 {fill:#50e6ff;stroke:none;stroke-linecap:butt;stroke-width:34.3623}
		.st4 {fill:#32bedd;stroke:none;stroke-linecap:butt;stroke-width:34.3623}
		.st5 {fill:#f2f2f2;stroke:none;stroke-linecap:butt;stroke-width:34.3623}
		.st6 {fill:none;fill-rule:evenodd;font-size:12px;overflow:visible;stroke-linecap:square;stroke-miterlimit:3}
	]]>
	</style>

	<defs
   id="Patterns_And_Gradients">
		<linearGradient
   id="grad0-5"
   x1="0"
   y1="0"
   x2="1"
   y2="0"
   gradientTransform="rotate(-90,0.5,0.5)">
			<stop
   offset="0"
   stop-color="#773adc"
   stop-opacity="1"
   id="stop4" />
			<stop
   offset="1"
   stop-color="#b77af4"
   stop-opacity="1"
   id="stop6" />
		</linearGradient>
	<linearGradient
   inkscape:collect="always"
   xlink:href="#grad0-5"
   id="linearGradient4566"
   gradientTransform="scale(1.2734419,0.78527338)"
   x1="-0.018725517"
   y1="121.15526"
   x2="38.541217"
   y2="121.15526"
   gradientUnits="userSpaceOnUse" /><linearGradient
   inkscape:collect="always"
   xlink:href="#grad0-5"
   id="linearGradient4568"
   gradientTransform="scale(0.99142575,1.0086484)"
   x1="0"
   y1="96.541572"
   x2="27.80057"
   y2="96.541572"
   gradientUnits="userSpaceOnUse" /></defs>
	<g
   id="g50"
   transform="translate(-34.362454,-34.362824)">
		<title
   id="title10">Page-1</title>
		<g
   id="group16646-1"
   transform="translate(34.3863,-34.3623)">
			<title
   id="title12">Customer Lockbox for Microsoft Azure.16646</title>
			<g
   id="shape16647-2"
   transform="translate(0,-1.69739)">
				<title
   id="title14">path16</title>
				<path
   d="m 44.68,125.42 a 4.37126,4.44717 -180 0 0 4.4,-4.42 c 0,-0.17 0,-0.37 0,-0.54 C 47.35,106.51 39.54,95.14 24.59,95.14 9.64,95.14 1.64,104.74 0,120.5 a 4.40463,4.48112 -180 0 0 3.9,4.92 z"
   class="st1"
   id="path16"
   inkscape:connector-curvature="0"
   style="fill:url(#linearGradient4566);stroke:none;stroke-width:34.36230087;stroke-linecap:butt" />
			</g>
			<g
   id="shape16648-6"
   transform="translate(17.118,-11.3725)">
				<title
   id="title19">path18</title>
				<path
   d="M 7.44,108.1 A 13.7811,14.0205 0 0 1 0,105.9 L 7.37,125.42 14.55,106 a 13.3474,13.5791 0 0 1 -7.11,2.1 z"
   class="st2"
   id="path21"
   inkscape:connector-curvature="0"
   style="fill:#ffffff;stroke:none;stroke-width:34.36230087;stroke-linecap:butt" />
			</g>
			<g
   id="shape16649-8"
   transform="translate(10.778,-28.652)">
				<title
   id="title24">circle20</title>
				<ellipse
   cx="13.7811"
   cy="111.397"
   rx="13.7811"
   ry="14.0205"
   class="st1"
   id="ellipse26"
   style="fill:url(#linearGradient4568);stroke:none;stroke-width:34.36230087;stroke-linecap:butt" />
			</g>
			<g
   id="shape16650-11"
   transform="translate(28.5967)">
				<title
   id="title29">rect22</title>
				<path
   d="m 0,123.52 a 1.86867,1.90112 -180 0 0 1.87,1.9 h 24.36 a 1.86867,1.90112 -180 0 0 1.87,-1.9 v -10.29 a 1.86867,1.90112 -180 0 0 -1.87,-1.9 H 1.87 A 1.86867,1.90112 -180 0 0 0,113.23 Z"
   class="st3"
   id="path31"
   inkscape:connector-curvature="0"
   style="fill:#50e6ff;stroke:none;stroke-width:34.36230087;stroke-linecap:butt" />
			</g>
			<g
   id="shape16651-13"
   transform="translate(28.5967,-0.101837)">
				<title
   id="title34">path24</title>
				<path
   d="M 14.05,111.43 H 1.87 A 1.86863,1.90108 -180 0 0 0,113.33 v 10.19 a 1.86863,1.90108 -180 0 0 1.87,1.9 h 12.18 z"
   class="st4"
   id="path36"
   inkscape:connector-curvature="0"
   style="fill:#32bedd;stroke:none;stroke-width:34.36230087;stroke-linecap:butt" />
			</g>
			<g
   id="shape16652-15"
   transform="translate(30.509,-2.7449)">
				<title
   id="title39">path26</title>
				<path
   d="m 10.1,118.01 -0.3,-0.34 a 0.500526,0.509218 -180 0 0 -0.667369,0 L 3.26,123.58 1.16,121.44 a 0.567263,0.577114 -180 0 0 -0.700737,0 L 0.16,121.78 a 0.433789,0.441322 -180 0 0 0,0.67896 l 2.8,2.88104 h 0.17 a 0.533894,0.543166 -180 0 0 0.533894,0 L 10.17,118.56 a 0.433789,0.441322 -180 0 0 -0.06674,-0.54317 z"
   class="st2"
   id="path41"
   inkscape:connector-curvature="0"
   style="fill:#ffffff;stroke:none;stroke-width:34.36230087;stroke-linecap:butt" />
			</g>
			<g
   id="shape16653-17"
   transform="translate(45.6908,-2.65895)">
				<title
   id="title44">path28</title>
				<path
   d="m 7.7,124.24 -2.8,-2.82 2.77,-2.82 a 0.467158,0.47527 -180 0 0 0,-0.64501 L 7.3,117.59 a 0.400421,0.407374 -180 0 0 -0.634,0 L 3.89,120.4 1.16,117.62 a 0.467158,0.47527 -180 0 0 -0.700737,0 L 0.12,117.93 a 0.467158,0.47527 -180 0 0 0,0.64501 l 2.77,2.84499 -2.73,2.79 a 0.533894,0.543166 -180 0 0 0,0.74685 L 0.49,125.26 a 0.367052,0.373426 -180 0 0 0.60063,0 L 3.89,122.44 6.7,125.26 a 0.467158,0.47527 -180 0 0 0.634,0 L 7.7,124.89 a 0.467158,0.47527 -180 0 0 0,-0.64501 z"
   class="st5"
   id="path46"
   inkscape:connector-curvature="0"
   style="fill:#f2f2f2;stroke:none;stroke-width:34.36230087;stroke-linecap:butt" />
			</g>
		</g>
	</g>
</svg>

<?xml version="1.0" encoding="UTF-8" standalone="no"?>
<!DOCTYPE svg PUBLIC "-//W3C//DTD SVG 1.1//EN" "http://www.w3.org/Graphics/SVG/1.1/DTD/svg11.dtd">
<!-- Generated by Microsoft Visio, SVG Export Customer Lockbox for Microsoft Azure.svg Page-1 -->
<svg xmlns="http://www.w3.org/2000/svg" xmlns:xlink="http://www.w3.org/1999/xlink" xmlns:ev="http://www.w3.org/2001/xml-events"
		width="1.74224in" height="1.74191in" viewBox="0 0 125.442 125.417" xml:space="preserve" color-interpolation-filters="sRGB"
		class="st6">
	<style type="text/css">
	<![CDATA[
		.st1 {fill:url(#grad0-5);stroke:none;stroke-linecap:butt;stroke-width:34.3623}
		.st2 {fill:#ffffff;stroke:none;stroke-linecap:butt;stroke-width:34.3623}
		.st3 {fill:#50e6ff;stroke:none;stroke-linecap:butt;stroke-width:34.3623}
		.st4 {fill:#32bedd;stroke:none;stroke-linecap:butt;stroke-width:34.3623}
		.st5 {fill:#f2f2f2;stroke:none;stroke-linecap:butt;stroke-width:34.3623}
		.st6 {fill:none;fill-rule:evenodd;font-size:12px;overflow:visible;stroke-linecap:square;stroke-miterlimit:3}
	]]>
	</style>

	<defs id="Patterns_And_Gradients">
		<linearGradient id="grad0-5" x1="0" y1="0" x2="1" y2="0" gradientTransform="rotate(-90 0.5 0.5)">
			<stop offset="0" stop-color="#773adc" stop-opacity="1"/>
			<stop offset="1" stop-color="#b77af4" stop-opacity="1"/>
		</linearGradient>
	</defs>
	<g>
		<title>Page-1</title>
		<g id="group16263-1" transform="translate(34.3863,-34.3623)">
			<title>Customer Lockbox for Microsoft Azure.16263</title>
			<g id="shape16264-2" transform="translate(2.83773E-13,-1.69739)">
				<title>path16</title>
				<path d="M44.68 125.42 A4.37126 4.44717 -180 0 0 49.08 121 C49.08 120.83 49.08 120.63 49.08 120.46 C47.35 106.51
							 39.54 95.14 24.59 95.14 C9.64 95.14 1.64 104.74 0 120.5 A4.40463 4.48112 -180 0 0 3.9 125.42 L44.68
							 125.42 Z" class="st1"/>
			</g>
			<g id="shape16265-6" transform="translate(17.118,-11.3725)">
				<title>path18</title>
				<path d="M7.44 108.1 A13.7811 14.0205 0 0 1 0 105.9 L7.37 125.42 L14.55 106 A13.3474 13.5791 0 0 1 7.44 108.1 Z"
						class="st2"/>
			</g>
			<g id="shape16266-8" transform="translate(10.778,-28.652)">
				<title>circle20</title>
				<ellipse cx="13.7811" cy="111.397" rx="13.7811" ry="14.0205" class="st1"/>
			</g>
			<g id="shape16267-11" transform="translate(28.5967,1.42109E-14)">
				<title>rect22</title>
				<path d="M-0 123.52 A1.86867 1.90112 -180 0 0 1.87 125.42 L26.23 125.42 A1.86867 1.90112 -180 0 0 28.1 123.52 L28.1
							 113.23 A1.86867 1.90112 -180 0 0 26.23 111.33 L1.87 111.33 A1.86867 1.90112 -180 0 0 0 113.23 L0 123.52
							 Z" class="st3"/>
			</g>
			<g id="shape16268-13" transform="translate(28.5967,-0.101837)">
				<title>path24</title>
				<path d="M14.05 111.43 L1.87 111.43 A1.86863 1.90108 -180 0 0 0 113.33 L0 123.52 A1.86863 1.90108 -180 0 0 1.87 125.42
							 L14.05 125.42 L14.05 111.43 Z" class="st4"/>
			</g>
			<g id="shape16269-15" transform="translate(30.509,-2.7449)">
				<title>path26</title>
				<path d="M10.1 118.01 L9.8 117.67 a0.500526 0.509218 -180 0 0 -0.667369 1.42109E-14 L3.26 123.58 L1.16 121.44 a0.567263
							 0.577114 -180 0 0 -0.700737 0 L0.16 121.78 a0.433789 0.441322 -180 0 0 -4.27436E-15 0.678957 L2.96 125.34
							 L3.13 125.34 a0.533894 0.543166 -180 0 0 0.533894 0 L10.17 118.56 a0.433789 0.441322 -180 0 0 -0.0667398
							 -0.543166 L10.1 118.01 Z" class="st2"/>
			</g>
			<g id="shape16270-17" transform="translate(45.6908,-2.65895)">
				<title>path28</title>
				<path d="M7.7 124.24 L4.9 121.42 L7.67 118.6 a0.467158 0.47527 -180 0 0 -1.33227E-14 -0.645009 L7.3 117.59 a0.400421
							 0.407374 -180 0 0 -0.634 -1.42109E-14 L3.89 120.4 L1.16 117.62 a0.467158 0.47527 -180 0 0 -0.700737
							 1.42109E-14 L0.12 117.93 a0.467158 0.47527 -180 0 0 -5.38458E-15 0.645009 L2.89 121.42 L0.16 124.21
							 a0.533894 0.543166 -180 0 0 -4.996E-15 0.746852 L0.49 125.26 a0.367052 0.373426 -180 0 0 0.60063 0 L3.89
							 122.44 L6.7 125.26 a0.467158 0.47527 -180 0 0 0.634 0 L7.7 124.89 a0.467158 0.47527 -180 0 0 0 -0.64501
							 Z" class="st5"/>
			</g>
		</g>
	</g>
</svg>
